X:983
T:Jude's Farewell
S:Book-Mike Rafferty, Second Wind
Z:Nigel Gatherer
L:1/8
M:6/8
K:G
D | GBd edB | ded dBA | G2d edB | ABG AFD |
GBd edB | dzd gag | edB AGA | BGF G2 :|
d | ggd edB | ded def | gzd edB | ABG ABd |
g2d edB | dBd gag | edB AGA | BGF G2 :|
<end>
<start>
